frontend/public/assets/material-icons/folder-macos-open.svg

<svg xmlns="http://www.w3.org/2000/svg" viewBox="0 0 32 32">
  <path d="M28.96692,12H9.44152a2,2,0,0,0-1.89737,1.36754L4,24V10H28a2,2,0,0,0-2-2H15.1241a2,2,0,0,1-1.28038-.46357L12.5563,6.46357A2,2,0,0,0,11.27592,6H4A2,2,0,0,0,2,8V24a2,2,0,0,0,2,2H26l4.80523-11.21213A2,2,0,0,0,28.96692,12Z" style="fill: #546e7a"/>
  <path d="M30.63919,27.49871c-.81845,1.24-1.68639,2.44979-3.00757,2.4699-1.3215.02991-1.7454-.79006-3.24435-.79006-1.50862,0-1.97217.77012-3.22452.82013-1.29167.04985-2.26808-1.31994-3.09622-2.52988-1.6864-2.46991-2.97807-7.01959-1.24252-10.07935a4.8078,4.8078,0,0,1,4.06281-2.50978c1.262-.0201,2.46521.87,3.24418.87.76914,0,2.2286-1.07005,3.757-.91a4.5627,4.5627,0,0,1,3.58926,1.97991,4.56927,4.56927,0,0,0-2.12013,3.80979A4.414,4.414,0,0,0,32,24.66907,11.12133,11.12133,0,0,1,30.63919,27.49871ZM25.00845,11.49989A4.46219,4.46219,0,0,1,27.90755,10,4.4157,4.4157,0,0,1,26.882,13.18986a3.5825,3.5825,0,0,1-2.90907,1.41981A4.31224,4.31224,0,0,1,25.00845,11.49989Z" style="fill: #cfd8dc"/>
</svg>

<svg xmlns="http://www.w3.org/2000/svg" viewBox="0 0 32 32"><path fill="#546e7a" d="M28.967 12H9.442a2 2 0 0 0-1.898 1.368L4 24V10h24a2 2 0 0 0-2-2H15.124a2 2 0 0 1-1.28-.464l-1.288-1.072A2 2 0 0 0 11.276 6H4a2 2 0 0 0-2 2v16a2 2 0 0 0 2 2h22l4.805-11.212A2 2 0 0 0 28.967 12"/><path fill="#cfd8dc" d="M30.64 27.499c-.82 1.24-1.687 2.45-3.008 2.47-1.322.03-1.746-.79-3.245-.79-1.508 0-1.972.77-3.224.82-1.292.05-2.268-1.32-3.096-2.53-1.687-2.47-2.979-7.02-1.243-10.08a4.81 4.81 0 0 1 4.063-2.51c1.262-.02 2.465.87 3.244.87.77 0 2.229-1.07 3.757-.91a4.56 4.56 0 0 1 3.59 1.98 4.57 4.57 0 0 0-2.12 3.81A4.41 4.41 0 0 0 32 24.67a11.1 11.1 0 0 1-1.36 2.83Zm-5.632-16a4.46 4.46 0 0 1 2.9-1.499 4.42 4.42 0 0 1-1.026 3.19 3.58 3.58 0 0 1-2.91 1.42 4.3 4.3 0 0 1 1.036-3.11Z"/></svg>
